X: 42390
T: Wellington's Advance
R: jig
M: 6/8
K: Adorian
EAA AGA|cBA c2d|efe efg|dBG GFG|
EAA AGA|cBA c2d|efe dcB|1 cAA A2G:|2 cAA efg||
age age|aed cBA|BAG ~g3|dBG GBd|
eaa ~a3|egg ~g3|e/f/ge dcB|1 cAA efg:|cAA A2G||

